assets/img/polkadot-logo-sign.svg

<svg width="24" height="24" viewBox="0 0 24 24" fill="none" xmlns="http://www.w3.org/2000/svg">
<rect width="24" height="24" rx="12" fill="white"/>
<g clip-path="url(#clip0_302_2752)">
<path d="M12.0905 3.375C8.31894 3.38947 5.26515 6.30674 5.25 9.90974C5.25 10.6313 5.37192 11.348 5.61071 12.0324C5.7889 12.4983 6.31771 12.7491 6.81405 12.6051C7.29379 12.4294 7.54846 11.9283 7.39551 11.4597C7.19279 10.9263 7.10262 10.3605 7.12931 9.79396C7.21155 7.19164 9.4862 5.14549 12.2103 5.22405C14.9344 5.30262 17.0763 7.47558 16.9941 10.0779C16.9169 12.5141 14.9084 14.4927 12.3611 14.6409C12.3611 14.6409 11.4009 14.6967 10.9233 14.7526C10.7472 14.7767 10.5727 14.8098 10.4002 14.8518C10.3757 14.8759 10.336 14.8759 10.3108 14.8525L10.3101 14.8518C10.2928 14.8304 10.2928 14.8001 10.3101 14.7787L10.4587 14.0041L11.3605 10.1296C11.4687 9.64578 11.1462 9.16957 10.6398 9.06619C10.1333 8.96281 9.63481 9.27087 9.5266 9.75467C9.5266 9.75467 7.38181 19.2384 7.38181 19.3245C7.25916 19.7856 7.55062 20.2542 8.03325 20.3714C8.0383 20.3728 8.04407 20.3741 8.04912 20.3748H8.0989C8.58081 20.4941 9.07282 20.217 9.19691 19.7566C9.19907 19.7491 9.20124 19.7415 9.20268 19.7332C9.20124 19.7187 9.20124 19.7043 9.20268 19.6905C9.22937 19.5788 9.49991 18.317 9.49991 18.317C9.70479 17.3645 10.5085 16.6347 11.5141 16.4872C11.7212 16.4569 12.5912 16.4011 12.5912 16.4011C16.3484 16.0434 19.0905 12.8435 18.7154 9.25433C18.3734 5.98076 15.5346 3.46046 12.0905 3.375Z" fill="#1E1E1E"/>
<path d="M12.5052 18.4423C11.8884 18.3196 11.2852 18.698 11.1568 19.2865C11.1554 19.292 11.1547 19.2975 11.1532 19.3031C11.0198 19.8882 11.4079 20.4664 12.0211 20.5939C12.0218 20.5939 12.0225 20.5939 12.0233 20.5946H12.055C12.6552 20.7331 13.2591 20.3802 13.4034 19.8075C13.4048 19.8034 13.4055 19.7986 13.407 19.7944V19.7345C13.513 19.1432 13.1177 18.576 12.5052 18.4423Z" fill="#E6007A"/>
</g>
<defs>
<clipPath id="clip0_302_2752">
<rect width="13.5" height="17.25" fill="white" transform="translate(5.25 3.375)"/>
</clipPath>
</defs>
</svg>

<svg width="24" height="24" fill="none" xmlns="http://www.w3.org/2000/svg"><rect width="24" height="24" rx="12" fill="#fff"/><g clip-path="url(#a)"><path d="M12.09 3.375c-3.77.014-6.824 2.932-6.84 6.535 0 .721.122 1.438.36 2.122.179.466.708.717 1.204.573.48-.176.734-.677.582-1.145a4.136 4.136 0 0 1-.267-1.666c.083-2.602 2.357-4.649 5.081-4.57 2.724.079 4.866 2.252 4.784 4.854-.077 2.436-2.086 4.415-4.633 4.563 0 0-.96.056-1.438.112a5.18 5.18 0 0 0-.523.099.065.065 0 0 1-.09 0 .058.058 0 0 1 0-.073l.149-.775.902-3.874c.108-.484-.215-.96-.721-1.064-.507-.103-1.005.205-1.113.689 0 0-2.145 9.483-2.145 9.57-.123.46.169.93.651 1.046l.016.004h.05c.482.12.974-.158 1.098-.618a.217.217 0 0 0 .006-.024.212.212 0 0 1 0-.043c.026-.111.297-1.373.297-1.373.205-.953 1.008-1.682 2.014-1.83a27.81 27.81 0 0 1 1.077-.086c3.757-.358 6.5-3.557 6.124-7.147-.342-3.273-3.18-5.794-6.624-5.879Z" fill="#1E1E1E"/><path d="M12.505 18.442c-.617-.122-1.22.256-1.348.845l-.004.016c-.133.585.255 1.163.868 1.29 0 0 .002 0 .002.002h.032c.6.138 1.204-.215 1.348-.787l.004-.014v-.06c.106-.59-.29-1.158-.902-1.292Z" fill="#E6007A"/></g><defs><clipPath id="a"><path fill="#fff" transform="translate(5.25 3.375)" d="M0 0h13.5v17.25H0z"/></clipPath></defs></svg>
